assets/azurestorageazurefiles/original.svg

<svg height="18" viewBox="0 0 18 18" width="18" xmlns="http://www.w3.org/2000/svg" xmlns:xlink="http://www.w3.org/1999/xlink"><linearGradient id="a" gradientUnits="userSpaceOnUse" x1="9" x2="9" y1="15.799" y2="5.316"><stop offset="0" stop-color="#32bedd"/><stop offset=".775" stop-color="#32d4f5"/></linearGradient><path d="m.544 5.316h16.912v9.918a.565.565 0 0 1 -.565.565h-15.782a.565.565 0 0 1 -.565-.565z" fill="url(#a)"/><path d="m1.112 2.2h15.776a.565.565 0 0 1 .565.565v2.55h-16.906v-2.549a.565.565 0 0 1 .565-.566" fill="#0078d4"/><path d="m13.9 7.32h-4.185a.22.22 0 0 1 -.125-.038l-1.2-.795a.2.2 0 0 0 -.124-.038h-3.514a.224.224 0 0 0 -.224.224v7.392a.223.223 0 0 0 .224.223h9.148a.224.224 0 0 0 .224-.223v-6.521a.224.224 0 0 0 -.224-.224" fill="#5ea0ef"/><rect fill="#fff" height=".464" rx=".098" width="2.318" x="5.154" y="6.905"/><rect fill="#0078d4" height=".464" rx=".067" width=".464" x="5.154" y="6.905"/><path d="m13.9 7.309h-4.6a.23.23 0 0 0 -.159.066l-.739.739a.23.23 0 0 1 -.159.066h-3.491a.224.224 0 0 0 -.224.224v5.65a.223.223 0 0 0 .224.223h9.148a.224.224 0 0 0 .224-.223v-6.521a.224.224 0 0 0 -.224-.224" fill="#fff" opacity=".9"/></svg>

<svg xmlns="http://www.w3.org/2000/svg" width="18" height="18" viewBox="0 0 18 18"><linearGradient id="a" x1="9" x2="9" y1="15.799" y2="5.316" gradientUnits="userSpaceOnUse"><stop offset="0" stop-color="#32bedd"/><stop offset=".775" stop-color="#32d4f5"/></linearGradient><path fill="url(#a)" d="M.544 5.316h16.912v9.918a.565.565 0 0 1-.565.565H1.109a.565.565 0 0 1-.565-.565z"/><path fill="#0078d4" d="M1.112 2.2h15.776a.565.565 0 0 1 .565.565v2.55H.547V2.766a.565.565 0 0 1 .565-.566"/><path fill="#5ea0ef" d="M13.9 7.32H9.715a.22.22 0 0 1-.125-.038l-1.2-.795a.2.2 0 0 0-.124-.038H4.752a.224.224 0 0 0-.224.224v7.392a.223.223 0 0 0 .224.223H13.9a.224.224 0 0 0 .224-.223V7.544a.224.224 0 0 0-.224-.224"/><rect width="2.318" height=".464" x="5.154" y="6.905" fill="#fff" rx=".098"/><rect width=".464" height=".464" x="5.154" y="6.905" fill="#0078d4" rx=".067"/><path fill="#fff" d="M13.9 7.309H9.3a.23.23 0 0 0-.159.066l-.739.739a.23.23 0 0 1-.159.066H4.752a.224.224 0 0 0-.224.224v5.65a.223.223 0 0 0 .224.223H13.9a.224.224 0 0 0 .224-.223V7.533a.224.224 0 0 0-.224-.224" opacity=".9"/></svg>
